X:347
T:Hopeful Lover #1, The
C:Joe Buchanan's Scottish Tome - Page 142.1
I:142 1
R:March
Z:Carl Allison
L:1/8
M:2/4
K:A
AA ce | aa fe | A>A ce | aa f2 |
AA ce | aa fe | ff ef | z EF A :|
c2 c>B | ce fe | c2 ce | ((3cBA) B2 |
c2 c>B | ce fe | f/g/a/f/ e>c | ((3cBA) A2 :|
%
W:Errata: Changed the A note in the last measure of the A part to 1/8 vs 1/4.
